humanity-icon-theme/Humanity/apps/64/accessories-dictionary.svg

<?xml version="1.0" encoding="UTF-8" standalone="no"?>
<!-- Created with Inkscape (http://www.inkscape.org/) -->
<svg
   xmlns:svg="http://www.w3.org/2000/svg"
   xmlns="http://www.w3.org/2000/svg"
   xmlns:xlink="http://www.w3.org/1999/xlink"
   version="1.0"
   width="64"
   height="64"
   id="svg4175">
  <defs
     id="defs4177">
    <linearGradient
       id="linearGradient2346">
      <stop
         id="stop2348"
         style="stop-color:#eeeeee;stop-opacity:1"
         offset="0" />
      <stop
         id="stop2350"
         style="stop-color:#d9d9da;stop-opacity:1"
         offset="1" />
    </linearGradient>
    <linearGradient
       id="linearGradient3211">
      <stop
         id="stop3213"
         style="stop-color:#ffffff;stop-opacity:1"
         offset="0" />
      <stop
         id="stop3215"
         style="stop-color:#ffffff;stop-opacity:0"
         offset="1" />
    </linearGradient>
    <linearGradient
       id="linearGradient2490">
      <stop
         id="stop2492"
         style="stop-color:#791235;stop-opacity:1"
         offset="0" />
      <stop
         id="stop2494"
         style="stop-color:#dd3b27;stop-opacity:1"
         offset="1" />
    </linearGradient>
    <linearGradient
       id="linearGradient5048">
      <stop
         id="stop5050"
         style="stop-color:#000000;stop-opacity:0"
         offset="0" />
      <stop
         id="stop5056"
         style="stop-color:#000000;stop-opacity:1"
         offset="0.5" />
      <stop
         id="stop5052"
         style="stop-color:#000000;stop-opacity:0"
         offset="1" />
    </linearGradient>
    <linearGradient
       id="linearGradient5060">
      <stop
         id="stop5062"
         style="stop-color:#000000;stop-opacity:1"
         offset="0" />
      <stop
         id="stop5064"
         style="stop-color:#000000;stop-opacity:0"
         offset="1" />
    </linearGradient>
    <linearGradient
       id="linearGradient3242-2">
      <stop
         id="stop3244"
         style="stop-color:#f8b17e;stop-opacity:1"
         offset="0" />
      <stop
         id="stop3246-9"
         style="stop-color:#e35d4f;stop-opacity:1"
         offset="0.31209752" />
      <stop
         id="stop3248-3"
         style="stop-color:#c6262e;stop-opacity:1"
         offset="0.57054454" />
      <stop
         id="stop3250-9"
         style="stop-color:#690b54;stop-opacity:1"
         offset="1" />
    </linearGradient>
    <linearGradient
       x1="302.85715"
       y1="366.64789"
       x2="302.85715"
       y2="609.50507"
       id="linearGradient3231"
       xlink:href="#linearGradient5048"
       gradientUnits="userSpaceOnUse"
       gradientTransform="matrix(2.774389,0,0,1.969706,-1892.179,-872.8854)" />
    <radialGradient
       cx="605.71429"
       cy="486.64789"
       r="117.14286"
       fx="605.71429"
       fy="486.64789"
       id="radialGradient3233"
       xlink:href="#linearGradient5060"
       gradientUnits="userSpaceOnUse"
       gradientTransform="matrix(2.774389,0,0,1.969706,-1891.633,-872.8854)" />
    <radialGradient
       cx="605.71429"
       cy="486.64789"
       r="117.14286"
       fx="605.71429"
       fy="486.64789"
       id="radialGradient3235"
       xlink:href="#linearGradient5060"
       gradientUnits="userSpaceOnUse"
       gradientTransform="matrix(-2.774389,0,0,1.969706,112.7623,-872.8854)" />
    <radialGradient
       cx="17.949392"
       cy="25.435272"
       r="13.427935"
       fx="17.949392"
       fy="25.435272"
       id="radialGradient3249"
       xlink:href="#linearGradient2346"
       gradientUnits="userSpaceOnUse"
       gradientTransform="matrix(-9.9164216e-3,-2.2574638,3.564406,-1.3857833e-2,-45.604439,71.757724)" />
    <linearGradient
       x1="25.579119"
       y1="-25.736307"
       x2="25.579119"
       y2="41.953453"
       id="linearGradient3253"
       xlink:href="#linearGradient3211"
       gradientUnits="userSpaceOnUse"
       gradientTransform="matrix(1.327168,0,0,1.3331554,-1.9477854,1.8495702)" />
    <radialGradient
       cx="39.651478"
       cy="18.618757"
       r="20.714195"
       fx="39.651478"
       fy="18.618757"
       id="radialGradient3257"
       xlink:href="#linearGradient3242-2"
       gradientUnits="userSpaceOnUse"
       gradientTransform="matrix(6.2384784e-2,3.943134,-5.8465704,4.4854257e-7,101.76823,-161.57596)" />
    <linearGradient
       x1="24.008854"
       y1="38.246284"
       x2="24.008854"
       y2="0.99999988"
       id="linearGradient3259"
       xlink:href="#linearGradient2490"
       gradientUnits="userSpaceOnUse"
       gradientTransform="matrix(1.3595893,0,0,1.3518602,-0.6421823,-0.5277458)" />
    <linearGradient
       x1="21.13592"
       y1="40.884956"
       x2="21.13592"
       y2="35.298134"
       id="linearGradient3263"
       xlink:href="#linearGradient2346"
       gradientUnits="userSpaceOnUse"
       gradientTransform="matrix(1.2225398,0,0,0.9314814,3.5024572,16.875453)" />
  </defs>
  <g
     transform="matrix(2.8615533e-2,0,0,1.951864e-2,57.45168,57.604517)"
     id="g8875">
    <rect
       width="1339.6335"
       height="478.35718"
       x="-1559.2523"
       y="-150.69685"
       id="rect8877"
       style="opacity:0.40206185;fill:url(#linearGradient3231);fill-opacity:1;fill-rule:nonzero;stroke:none;stroke-width:1;marker:none;visibility:visible;display:inline;overflow:visible" />
    <path
       d="M -219.61876,-150.68038 C -219.61876,-150.68038 -219.61876,327.65041 -219.61876,327.65041 C -76.744594,328.55086 125.78146,220.48075 125.78138,88.454235 C 125.78138,-43.572302 -33.655436,-150.68036 -219.61876,-150.68038 L -219.61876,-150.68038 z"
       id="path8879"
       style="opacity:0.40206185;fill:url(#radialGradient3233);fill-opacity:1;fill-rule:nonzero;stroke:none;stroke-width:1;marker:none;visibility:visible;display:inline;overflow:visible" />
    <path
       d="M -1559.2523,-150.68038 C -1559.2523,-150.68038 -1559.2523,327.65041 -1559.2523,327.65041 C -1702.1265,328.55086 -1904.6525,220.48075 -1904.6525,88.454235 C -1904.6525,-43.572302 -1745.2157,-150.68036 -1559.2523,-150.68038 L -1559.2523,-150.68038 z"
       id="path8881"
       style="opacity:0.40206185;fill:url(#radialGradient3235);fill-opacity:1;fill-rule:nonzero;stroke:none;stroke-width:1;marker:none;visibility:visible;display:inline;overflow:visible" />
  </g>
  <path
     d="M 58.500125,59.500127 L 7.3444205,59.500127 C 6.8698716,59.500127 6.4878344,59.087207 6.4878344,58.574294 L 5.4998729,51.425705 C 5.4998729,50.912791 5.8819104,50.499872 6.3564592,50.499872 L 58.444196,50.499872"
     id="rect8840"
     style="fill:url(#linearGradient3263);fill-opacity:1;fill-rule:nonzero;stroke:#7a1235;stroke-width:0.99974561;stroke-linecap:round;stroke-linejoin:round;marker:none;stroke-miterlimit:4;stroke-dasharray:none;stroke-dashoffset:0.06;stroke-opacity:1;visibility:visible;display:inline;overflow:visible;enable-background:accumulate" />
  <path
     d="M 58.393151,58.553615 C 58.393151,58.553615 58.256927,51.55336 58.256927,51.55336"
     id="path9017"
     style="fill:none;stroke:#666666;stroke-width:0.99974561;stroke-linecap:round;stroke-linejoin:miter;stroke-miterlimit:4;stroke-dasharray:none;stroke-opacity:1" />
  <path
     d="M 8.9973185,1.4998726 C 8.5142696,1.4998726 8.1382582,2.048784 8.1382587,2.7441873 L 5.4998728,49.255811 C 5.4998728,49.951216 5.9132347,50.500129 6.3962829,50.500127 L 57.603717,50.500127 C 58.086763,50.500129 58.500127,49.951216 58.500127,49.255811 L 55.549546,2.7441873 C 55.549547,2.048784 55.173535,1.4998726 54.690485,1.4998726 L 8.9973185,1.4998726 L 8.9973185,1.4998726 z"
     id="rect8064"
     style="fill:url(#radialGradient3257);fill-opacity:1;fill-rule:nonzero;stroke:url(#linearGradient3259);stroke-width:0.99974561;stroke-linecap:round;stroke-linejoin:round;marker:none;stroke-miterlimit:4;stroke-dasharray:none;stroke-dashoffset:0.06;stroke-opacity:1;visibility:visible;display:inline;overflow:visible;enable-background:accumulate" />
  <path
     d="M 7.461176,58.463741 L 6.5112302,51.575194"
     id="path3267"
     style="opacity:0.2;fill:none;stroke:#000000;stroke-width:0.99974561px;stroke-linecap:square;stroke-linejoin:miter;stroke-opacity:1" />
  <path
     d="M 10.040542,2.4998726 C 9.5515235,2.4998726 9.170865,3.0562559 9.1708655,3.7611249 L 6.4998724,48.238874 C 6.4998724,48.943745 6.9183433,49.500129 7.4073613,49.500128 L 56.592639,49.500128 C 57.081654,49.500129 57.500126,48.943745 57.500126,48.238874 L 54.51308,3.7611249 C 54.513082,3.0562559 54.132423,2.4998726 53.643403,2.4998726 L 10.040542,2.4998726 L 10.040542,2.4998726 z"
     id="path2868"
     style="opacity:0.4;fill:none;stroke:url(#linearGradient3253);stroke-width:0.99974561;stroke-linecap:round;stroke-linejoin:round;marker:none;stroke-miterlimit:4;stroke-dasharray:none;stroke-dashoffset:0.06;stroke-opacity:1;visibility:visible;display:inline;overflow:visible;enable-background:accumulate" />
  <path
     d="M 19.051474,26.123178 C 21.663581,26.123178 24.275691,26.123178 26.887799,26.123178 C 25.581745,22.860764 24.275691,19.59835 22.969636,16.335933 C 21.663581,19.59835 20.357528,22.860764 19.051474,26.123178 L 19.051474,26.123178 z M 13.016931,33.580782 C 13.082184,33.128188 12.890205,32.427622 13.105424,32.119588 C 13.700358,32.119588 14.295287,32.119588 14.890219,32.119588 C 17.426062,25.746392 19.961904,19.373196 22.497746,13.000001 C 23.298539,13.000001 24.099332,13.000001 24.900124,13.000001 C 27.440733,19.373196 29.981342,25.746392 32.521953,32.119588 C 33.222644,32.119588 33.923338,32.119588 34.624032,32.119588 C 34.558778,32.572181 34.750751,33.272746 34.535538,33.580782 C 31.976759,33.580782 29.41798,33.580782 26.8592,33.580782 C 26.924453,33.128188 26.732481,32.427622 26.947694,32.119588 C 27.709456,32.119588 28.47122,32.119588 29.232984,32.119588 C 28.637156,30.612444 28.041328,29.105301 27.445498,27.598156 C 24.452062,27.598156 21.458623,27.598156 18.465186,27.598156 C 17.869356,29.105301 17.27353,30.612444 16.677703,32.119588 C 17.459427,32.119588 18.241155,32.119588 19.022879,32.119588 C 18.957626,32.572181 19.149612,33.272746 18.934385,33.580782 C 16.961901,33.580782 14.989415,33.580782 13.016931,33.580782 L 13.016931,33.580782 z M 46.00672,28.976642 C 46.00672,27.942779 46.00672,26.908915 46.00672,25.875052 C 44.248665,25.944316 42.447304,25.68631 40.730399,26.13239 C 38.409546,26.81511 38.142451,30.1138 39.714779,31.60955 C 41.569234,33.265886 45.242771,32.603754 45.863936,30.071893 C 45.964565,29.715557 46.006778,29.345435 46.00672,28.976642 L 46.00672,28.976642 z M 48.637895,24.427642 C 48.637895,26.991624 48.637895,29.555604 48.637895,32.119588 C 49.419619,32.119588 50.201346,32.119588 50.983072,32.119588 C 50.917818,32.572181 51.109791,33.272746 50.894579,33.580782 C 49.265289,33.580782 47.636003,33.580782 46.006715,33.580782 C 46.006715,33.052362 46.006715,32.523944 46.006715,31.995523 C 44.124474,34.285244 40.401035,34.543843 37.892487,33.125127 C 35.018513,31.439916 35.088972,26.64771 38.199991,25.22819 C 40.62237,24.03584 43.392917,24.493046 46.006715,24.400071 C 46.079,22.978748 45.962529,21.304261 44.526896,20.502141 C 42.879112,19.605429 40.447642,19.585965 39.07932,20.967651 C 38.459223,21.81355 38.534512,22.99643 37.191638,22.621827 C 36.727062,22.547853 37.106538,21.660213 36.983499,21.257003 C 36.983499,20.72403 36.983499,20.191056 36.983499,19.658084 C 39.881331,18.469278 43.469888,17.896494 46.309129,19.528753 C 48.013125,20.566262 48.675807,22.569606 48.637888,24.427645 L 48.637895,24.427642 z"
     id="path3271"
     style="font-size:21.12489128px;font-style:normal;font-variant:normal;font-weight:normal;font-stretch:normal;fill:#7b1234;fill-opacity:1;stroke:none;font-family:Serif;-inkscape-font-specification:Serif" />
  <path
     d="M 19.051474,27.123177 C 21.663581,27.123177 24.275691,27.123177 26.887799,27.123177 C 25.581745,23.860763 24.275691,20.598349 22.969636,17.335932 C 21.663581,20.598349 20.357528,23.860763 19.051474,27.123177 L 19.051474,27.123177 z M 13.016931,34.580781 C 13.082184,34.128187 12.890205,33.427621 13.105424,33.119587 C 13.700358,33.119587 14.295287,33.119587 14.890219,33.119587 C 17.426062,26.746391 19.961904,20.373195 22.497746,14 C 23.298539,14 24.099332,14 24.900124,14 C 27.440733,20.373195 29.981342,26.746391 32.521953,33.119587 C 33.222644,33.119587 33.923338,33.119587 34.624032,33.119587 C 34.558778,33.57218 34.750751,34.272745 34.535538,34.580781 C 31.976759,34.580781 29.41798,34.580781 26.8592,34.580781 C 26.924453,34.128187 26.732481,33.427621 26.947694,33.119587 C 27.709456,33.119587 28.47122,33.119587 29.232984,33.119587 C 28.637156,31.612443 28.041328,30.1053 27.445498,28.598155 C 24.452062,28.598155 21.458623,28.598155 18.465186,28.598155 C 17.869356,30.1053 17.27353,31.612443 16.677703,33.119587 C 17.459427,33.119587 18.241155,33.119587 19.022879,33.119587 C 18.957626,33.57218 19.149612,34.272745 18.934385,34.580781 C 16.961901,34.580781 14.989415,34.580781 13.016931,34.580781 L 13.016931,34.580781 z M 46.00672,29.976641 C 46.00672,28.942778 46.00672,27.908914 46.00672,26.875051 C 44.248665,26.944315 42.447304,26.686309 40.730399,27.132389 C 38.409546,27.815109 38.142451,31.113799 39.714779,32.609549 C 41.569234,34.265885 45.242771,33.603753 45.863936,31.071892 C 45.964565,30.715556 46.006778,30.345434 46.00672,29.976641 L 46.00672,29.976641 z M 48.637895,25.427641 C 48.637895,27.991623 48.637895,30.555603 48.637895,33.119587 C 49.419619,33.119587 50.201346,33.119587 50.983072,33.119587 C 50.917818,33.57218 51.109791,34.272745 50.894579,34.580781 C 49.265289,34.580781 47.636003,34.580781 46.006715,34.580781 C 46.006715,34.052361 46.006715,33.523943 46.006715,32.995522 C 44.124474,35.285243 40.401035,35.543842 37.892487,34.125126 C 35.018513,32.439915 35.088972,27.647709 38.199991,26.228189 C 40.62237,25.035839 43.392917,25.493045 46.006715,25.40007 C 46.079,23.978747 45.962529,22.30426 44.526896,21.50214 C 42.879112,20.605428 40.447642,20.585964 39.07932,21.96765 C 38.459223,22.813549 38.534512,23.996429 37.191638,23.621826 C 36.727062,23.547852 37.106538,22.660212 36.983499,22.257002 C 36.983499,21.724029 36.983499,21.191055 36.983499,20.658083 C 39.881331,19.469277 43.469888,18.896493 46.309129,20.528752 C 48.013125,21.566261 48.675807,23.569605 48.637888,25.427644 L 48.637895,25.427641 z"
     id="text2537-9"
     style="font-size:21.12489128px;font-style:normal;font-variant:normal;font-weight:normal;font-stretch:normal;fill:url(#radialGradient3249);fill-opacity:1;stroke:none;font-family:Serif;-inkscape-font-specification:Serif" />
</svg>

<?xml version="1.0" encoding="UTF-8" standalone="no"?>
<!-- Created with Inkscape (http://www.inkscape.org/) -->
<svg id="svg4175" xmlns="http://www.w3.org/2000/svg" height="64" width="64" version="1.0" xmlns:xlink="http://www.w3.org/1999/xlink">
 <defs id="defs4177">
  <linearGradient id="linearGradient2346">
   <stop id="stop2348" style="stop-color:#eee" offset="0"/>
   <stop id="stop2350" style="stop-color:#d9d9da" offset="1"/>
  </linearGradient>
  <linearGradient id="linearGradient5060">
   <stop id="stop5062" offset="0"/>
   <stop id="stop5064" style="stop-opacity:0" offset="1"/>
  </linearGradient>
  <linearGradient id="linearGradient3231" y2="609.51" gradientUnits="userSpaceOnUse" x2="302.86" gradientTransform="matrix(2.7744 0 0 1.9697 -1892.2 -872.89)" y1="366.65" x1="302.86">
   <stop id="stop5050" style="stop-opacity:0" offset="0"/>
   <stop id="stop5056" offset=".5"/>
   <stop id="stop5052" style="stop-opacity:0" offset="1"/>
  </linearGradient>
  <radialGradient id="radialGradient3233" xlink:href="#linearGradient5060" gradientUnits="userSpaceOnUse" cy="486.65" cx="605.71" gradientTransform="matrix(2.7744 0 0 1.9697 -1891.6 -872.89)" r="117.14"/>
  <radialGradient id="radialGradient3235" xlink:href="#linearGradient5060" gradientUnits="userSpaceOnUse" cy="486.65" cx="605.71" gradientTransform="matrix(-2.7744 0 0 1.9697 112.76 -872.89)" r="117.14"/>
  <radialGradient id="radialGradient3249" xlink:href="#linearGradient2346" gradientUnits="userSpaceOnUse" cy="25.435" cx="17.949" gradientTransform="matrix(-.0099164 -2.2575 3.5644 -.013858 -45.604 71.758)" r="13.428"/>
  <linearGradient id="linearGradient3253" y2="41.953" gradientUnits="userSpaceOnUse" x2="25.579" gradientTransform="matrix(1.3272 0 0 1.3332 -1.9478 1.8496)" y1="-25.736" x1="25.579">
   <stop id="stop3213" style="stop-color:#fff" offset="0"/>
   <stop id="stop3215" style="stop-color:#fff;stop-opacity:0" offset="1"/>
  </linearGradient>
  <radialGradient id="radialGradient3257" gradientUnits="userSpaceOnUse" cy="18.619" cx="39.651" gradientTransform="matrix(.062385 3.9431 -5.8466 4.4854e-7 101.77 -161.58)" r="20.714">
   <stop id="stop3244" style="stop-color:#f8b17e" offset="0"/>
   <stop id="stop3246-9" style="stop-color:#e35d4f" offset=".31210"/>
   <stop id="stop3248-3" style="stop-color:#c6262e" offset=".57054"/>
   <stop id="stop3250-9" style="stop-color:#690b54" offset="1"/>
  </radialGradient>
  <linearGradient id="linearGradient3259" y2="1" gradientUnits="userSpaceOnUse" x2="24.009" gradientTransform="matrix(1.3596 0 0 1.3519 -.64218 -.52775)" y1="38.246" x1="24.009">
   <stop id="stop2492" style="stop-color:#791235" offset="0"/>
   <stop id="stop2494" style="stop-color:#dd3b27" offset="1"/>
  </linearGradient>
  <linearGradient id="linearGradient3263" y2="35.298" xlink:href="#linearGradient2346" gradientUnits="userSpaceOnUse" x2="21.136" gradientTransform="matrix(1.2225 0 0 .93148 3.5025 16.875)" y1="40.885" x1="21.136"/>
 </defs>
 <g id="g8875" transform="matrix(.028616 0 0 .019519 57.452 57.605)">
  <rect id="rect8877" style="opacity:.40206;fill:url(#linearGradient3231)" height="478.36" width="1339.6" y="-150.7" x="-1559.3"/>
  <path id="path8879" style="opacity:.40206;fill:url(#radialGradient3233)" d="m-219.62-150.68v478.33c142.88 0.9 345.4-107.17 345.4-239.2 0-132.02-159.44-239.13-345.4-239.13z"/>
  <path id="path8881" style="opacity:.40206;fill:url(#radialGradient3235)" d="m-1559.3-150.68v478.33c-142.8 0.9-345.4-107.17-345.4-239.2 0-132.02 159.5-239.13 345.4-239.13z"/>
 </g>
 <path id="rect8840" style="stroke-linejoin:round;stroke-width:.99975;stroke-dashoffset:.06;stroke:#7a1235;stroke-linecap:round;fill:url(#linearGradient3263)" d="m58.5 59.5h-51.156c-0.4741 0-0.8562-0.413-0.8562-0.926l-0.9879-7.148c0-0.513 0.382-0.926 0.8566-0.926h52.088"/>
 <path id="path9017" style="stroke:#666;stroke-linecap:round;stroke-width:.99975;fill:none" d="m58.393 58.554l-0.136-7.001"/>
 <path id="rect8064" style="stroke-linejoin:round;stroke-width:.99975;stroke-dashoffset:.06;stroke:url(#linearGradient3259);stroke-linecap:round;fill:url(#radialGradient3257)" d="m8.9973 1.4999c-0.483 0-0.859 0.5489-0.859 1.2443l-2.6384 46.512c0 0.695 0.4133 1.244 0.8964 1.244h51.208c0.483 0 0.896-0.549 0.896-1.244l-2.95-46.512c0-0.6952-0.376-1.2441-0.86-1.2441h-45.693 0.0003z"/>
 <path id="path3267" style="opacity:.2;stroke:#000;stroke-linecap:square;stroke-width:.99975px;fill:none" d="m7.4612 58.464l-0.95-6.889"/>
 <path id="path2868" style="opacity:.4;stroke-linejoin:round;stroke-width:.99975;stroke-dashoffset:.06;stroke:url(#linearGradient3253);stroke-linecap:round;fill:none" d="m10.041 2.4999c-0.4895 0-0.8701 0.5564-0.8701 1.2612l-2.671 44.478c0 0.705 0.4184 1.261 0.9075 1.261h49.186c0.489 0 0.907-0.556 0.907-1.261l-2.987-44.478c0-0.7047-0.381-1.2611-0.87-1.2611h-43.602z"/>
 <path id="path3271" style="fill:#7b1234" d="m19.051 26.123h7.837c-1.306-3.262-2.612-6.525-3.918-9.787-1.306 3.262-2.612 6.525-3.919 9.787zm-6.034 7.458c0.065-0.453-0.127-1.153 0.088-1.461h1.785c2.536-6.374 5.072-12.747 7.608-19.12h2.402c2.541 6.373 5.081 12.746 7.622 19.12h2.102c-0.065 0.452 0.127 1.153-0.088 1.461h-7.677c0.065-0.453-0.127-1.153 0.089-1.461h2.285c-0.596-1.508-1.192-3.015-1.788-4.522h-8.98c-0.596 1.507-1.191 3.014-1.787 4.522h2.345c-0.065 0.452 0.127 1.153-0.089 1.461h-5.917zm32.99-4.604v-3.102c-1.758 0.069-3.56-0.189-5.277 0.257-2.32 0.683-2.588 3.982-1.015 5.478 1.854 1.656 5.528 0.994 6.149-1.538 0.101-0.356 0.143-0.727 0.143-1.095zm2.631-4.549v7.692h2.345c-0.065 0.452 0.127 1.153-0.088 1.461h-4.888v-1.585c-1.883 2.289-5.606 2.548-8.115 1.129-2.873-1.685-2.803-6.477 0.308-7.897 2.422-1.192 5.193-0.735 7.807-0.828 0.072-1.421-0.044-3.096-1.48-3.898-1.648-0.897-4.079-0.916-5.448 0.466-0.62 0.846-0.544 2.028-1.887 1.654-0.465-0.074-0.085-0.962-0.209-1.365v-1.599c2.898-1.189 6.487-1.762 9.326-0.129 1.704 1.037 2.367 3.041 2.329 4.899z"/>
 <path id="text2537-9" style="fill:url(#radialGradient3249)" d="m19.051 27.123h7.837c-1.306-3.262-2.612-6.525-3.918-9.787-1.306 3.262-2.612 6.525-3.919 9.787zm-6.034 7.458c0.065-0.453-0.127-1.153 0.088-1.461h1.785c2.536-6.374 5.072-12.747 7.608-19.12h2.402c2.541 6.373 5.081 12.746 7.622 19.12h2.102c-0.065 0.452 0.127 1.153-0.088 1.461h-7.677c0.065-0.453-0.127-1.153 0.089-1.461h2.285c-0.596-1.508-1.192-3.015-1.788-4.522h-8.98c-0.596 1.507-1.191 3.014-1.787 4.522h2.345c-0.065 0.452 0.127 1.153-0.089 1.461h-5.917zm32.99-4.604v-3.102c-1.758 0.069-3.56-0.189-5.277 0.257-2.32 0.683-2.588 3.982-1.015 5.478 1.854 1.656 5.528 0.994 6.149-1.538 0.101-0.356 0.143-0.727 0.143-1.095zm2.631-4.549v7.692h2.345c-0.065 0.452 0.127 1.153-0.088 1.461h-4.888v-1.585c-1.883 2.289-5.606 2.548-8.115 1.129-2.873-1.685-2.803-6.477 0.308-7.897 2.422-1.192 5.193-0.735 7.807-0.828 0.072-1.421-0.044-3.096-1.48-3.898-1.648-0.897-4.079-0.916-5.448 0.466-0.62 0.846-0.544 2.028-1.887 1.654-0.465-0.074-0.085-0.962-0.209-1.365v-1.599c2.898-1.189 6.487-1.762 9.326-0.129 1.704 1.037 2.367 3.041 2.329 4.899z"/>
</svg>
